X: 672
T: Wedding Hora
T: Hora lui Hungalu
M: 2/4
L: 1/16
K: Gmin
BAG^F G2^fg|g^fef edc=B|c3c =BcdB|c2z2 z4|
BAG^F =F2=ef|f=e_ed edce|d2z2 {d}^cdec|d2z2 z4|
BAG^F G2^fg|g^fef edc=B|c2 z2 {c}=B2c2|{d}e8|
cBAG ^FGAB|d^cBc BAG^F|G3G ^FGAF|[1G4 z4:|[2G2 z2 z2 d2|
|: ^cdb2 b2b2|abbg ^f2g2|a8-|a6 g2|^fga2 a2a2|g^fef edce|d2g2d2g2|d6 d2|
^cdg2 g2g2|Tg3f fedc|dfe2 e2e2|~e2de fedc|
cBAG ^FGAB|d^cBc BAG^F|G3G ^FGAF|[1 G2 z2 z2 d2:|[2G2 z2 z4|



